X:1
T:Les Patins Blancs
C:Philippe Prieur
R:walzer
A:France
Z:abc transcription Simon Wascher
M:3/4
L:1/4
K:Dmixo
dAF | dAF | cGE | cGE |\
B>AG | BAG | A3 | AGF :|
|:\
G>AB | BcB | F3 | F>ED |\
EGB | BAG | A3 | AGF |
G>AB | BcB | F3 | F>ED |\
E3 | G3 | A3 | c2-" ( )"xc :|
